svg/database_import.svg

<svg xmlns="http://www.w3.org/2000/svg" viewBox="0 0 24 24"><path d="M12 3C8.59 3 5.69 4.07 4.54 5.57l5.25 5.25c.71.11 1.43.18 2.21.18 4.42 0 8-1.79 8-4s-3.58-4-8-4M3.92 7.08 2.5 8.5 5 11H0v2h5l-2.5 2.5 1.42 1.42L8.84 12M20 9c0 2.21-3.58 4-8 4-.66 0-1.3-.05-1.91-.13l-2.47 2.47c1.26.41 2.76.66 4.38.66 4.42 0 8-1.79 8-4m0 2c0 2.21-3.58 4-8 4-2.28 0-4.33-.5-5.79-1.25l-1.68 1.68C5.68 19.93 8.59 21 12 21c4.42 0 8-1.79 8-4"/></svg>

<?xml version="1.0" encoding="UTF-8"?><!DOCTYPE svg PUBLIC "-//W3C//DTD SVG 1.1//EN" "http://www.w3.org/Graphics/SVG/1.1/DTD/svg11.dtd"><svg xmlns="http://www.w3.org/2000/svg" xmlns:xlink="http://www.w3.org/1999/xlink" version="1.1" id="mdi-database-import" width="24" height="24" viewBox="0 0 24 24"><path d="M12,3C8.59,3 5.69,4.07 4.54,5.57L9.79,10.82C10.5,10.93 11.22,11 12,11C16.42,11 20,9.21 20,7C20,4.79 16.42,3 12,3M3.92,7.08L2.5,8.5L5,11H0V13H5L2.5,15.5L3.92,16.92L8.84,12M20,9C20,11.21 16.42,13 12,13C11.34,13 10.7,12.95 10.09,12.87L7.62,15.34C8.88,15.75 10.38,16 12,16C16.42,16 20,14.21 20,12M20,14C20,16.21 16.42,18 12,18C9.72,18 7.67,17.5 6.21,16.75L4.53,18.43C5.68,19.93 8.59,21 12,21C16.42,21 20,19.21 20,17" /></svg>
